src/pos-icons/campfire.svg

<svg height="24" viewBox="0 0 24 24" width="24" xmlns="http://www.w3.org/2000/svg"><path d="m15.9 18.5 6 1.6-.4 1.9-9.4-2.5-9.4 2.5-.5-1.9 6-1.6-6.1-1.6.5-1.9 9.4 2.5 9.4-2.5.5 1.9zm.17-10.58c-.16-.22-.36-.42-.57-.59-.45-.43-1-.74-1.44-1.2-1.06-1.05-1.27-2.79-.62-4.13-.65.17-1.26.54-1.77.95-1.83 1.51-2.56 4.15-1.67 6.43 0 .07.04.15.04.24 0 .16-.11.3-.25.38-.16.05-.33 0-.46-.1-.05-.04-.08-.08-.11-.13-.8-1.03-.93-2.51-.38-3.7-1.19.99-1.84 2.65-1.73 4.22.02.36.07.71.19 1.07.11.44.29.87.52 1.25.75 1.25 2.08 2.15 3.5 2.33 1.52.2 3.14-.09 4.31-1.15 1.3-1.2 1.77-3.12 1.08-4.79l-.1-.17c-.14-.33-.33-.63-.57-.9zm-2.24 4.55c-.2.18-.52.36-.78.44-.79.28-1.59-.12-2.05-.6.84-.2 1.34-.84 1.5-1.48.11-.58-.11-1.05-.21-1.61-.08-.53-.07-.99.13-1.49.13.27.27.55.44.77.55.72 1.41 1.04 1.59 2 .02.13.05.22.05.33 0 .6-.24 1.24-.68 1.64"/></svg>

<?xml version="1.0" encoding="UTF-8"?><!DOCTYPE svg PUBLIC "-//W3C//DTD SVG 1.1//EN" "http://www.w3.org/Graphics/SVG/1.1/DTD/svg11.dtd"><svg xmlns="http://www.w3.org/2000/svg" xmlns:xlink="http://www.w3.org/1999/xlink" version="1.1" id="mdi-campfire" width="24" height="24" viewBox="0 0 24 24"><path d="M15.9,18.5L21.9,20.1L21.5,22L12.1,19.5L2.7,22L2.2,20.1L8.2,18.5L2.1,16.9L2.6,15L12,17.5L21.4,15L21.9,16.9L15.9,18.5M16.07,7.92C15.91,7.7 15.71,7.5 15.5,7.33C15.05,6.9 14.5,6.59 14.06,6.13C13,5.08 12.79,3.34 13.44,2C12.79,2.17 12.18,2.54 11.67,2.95C9.84,4.46 9.11,7.1 10,9.38C10,9.45 10.04,9.53 10.04,9.62C10.04,9.78 9.93,9.92 9.79,10C9.63,10.05 9.46,10 9.33,9.9C9.28,9.86 9.25,9.82 9.22,9.77C8.42,8.74 8.29,7.26 8.84,6.07C7.65,7.06 7,8.72 7.11,10.29C7.13,10.65 7.18,11 7.3,11.36C7.41,11.8 7.59,12.23 7.82,12.61C8.57,13.86 9.9,14.76 11.32,14.94C12.84,15.14 14.46,14.85 15.63,13.79C16.93,12.59 17.4,10.67 16.71,9L16.61,8.83C16.47,8.5 16.28,8.2 16.04,7.93L16.07,7.92M13.83,12.47C13.63,12.65 13.31,12.83 13.05,12.91C12.26,13.19 11.46,12.79 11,12.31C11.84,12.11 12.34,11.47 12.5,10.83C12.61,10.25 12.39,9.78 12.29,9.22C12.21,8.69 12.22,8.23 12.42,7.73C12.55,8 12.69,8.28 12.86,8.5C13.41,9.22 14.27,9.54 14.45,10.5C14.47,10.63 14.5,10.72 14.5,10.83C14.5,11.43 14.26,12.07 13.82,12.47" /></svg>
